libs/ui/packages/crypto-icons/src/svg/BEAM.svg

<svg width="24" height="24" viewBox="0 0 24 24" fill="none">
<path d="M20.67 10.2375V8.5875L15.3 11.715L11.985 6V9.75L13.6725 12.675L12.99 13.08L11.985 11.31L10.905 13.23L10.155 12.9225L11.985 9.75V6L8.35499 12.18L3.29999 10.0875V12L7.79999 13.11L4.94999 18H11.985V15.9825H8.39249L9.73499 13.6275L10.545 13.83L9.73499 15.255H14.235L13.56 14.0625L14.4525 13.995L15.6 15.9825H11.985V18H19.05L16.62 13.8525L20.7 13.5525V11.895L16.11 13.0275L20.6925 11.85V10.35L15.72 12.3675L20.67 10.2375ZM14.145 13.5L13.335 13.7025L14.13 13.5H14.145ZM13.89 13.05L13.14 13.35L13.89 13.0425V13.05Z" fill="#0B76FF"/>
</svg>

<svg width="24" height="24" viewBox="0 0 24 24" fill="none"><path fill="#0b76ff" d="M20.67 10.238v-1.65l-5.37 3.127L11.985 6v3.75l1.688 2.925-.683.405-1.005-1.77-1.08 1.92-.75-.308 1.83-3.172V6l-3.63 6.18L3.3 10.088V12l4.5 1.11L4.95 18h7.035v-2.017H8.392l1.343-2.356.81.203-.81 1.425h4.5l-.675-1.193.893-.067 1.147 1.988h-3.615V18h7.065l-2.43-4.148 4.08-.3v-1.657l-4.59 1.133 4.583-1.178v-1.5l-4.973 2.018zM14.145 13.5l-.81.203.795-.203zm-.255-.45-.75.3.75-.307z"/></svg>
